X:131 
T:Luck Penny, The 
B:CRE3.014 (DÃÂÃÂÃÂÃÂºthracht)
F:file ID: cre.3/131luck_p
N:No F naturals in the source version. I've added a 4th part to this
file that includes the F naturals as they're normally played today (on
those instruments that can handle F naturals!)
R:jig
Q:160
M:6/8
L:1/8
K:G
d/c/|B3 AGF|GAG FGA|BAG BdB|cAG F2d/c/|
B3 AGF|GBd gag|fed gdB|cAF G2:|
"II"
|:B|dgg gfg|abg fga|bag agf|def g2a|
bag agf|gag fdc|def gdB|cAF G2:|
"III"
B/c/|dBG GFG|dBG GAB|cAF GF/E/F|cAF F2B/c/|
dBG GFG|g3 fdc|def gdB|cAF G2B/c/|
dBG GFG|DGB DGB|cAF FEF|CFF CFA|
dBG GFG|g3 fdB|def gdB|cAF G3|]

%%%

